img/hero-bg.svg

<svg width="300" height="598" viewBox="0 0 300 598" fill="none" xmlns="http://www.w3.org/2000/svg">
<g clip-path="url(#clip0)">
<path d="M22.876 166.221L78.1774 199.402V265.764L22.876 232.583V166.221Z" fill="#7BA7D3"/>
<path d="M-32.4258 265.764L22.8756 232.583L78.177 265.764L22.8756 298.945L-32.4258 265.764Z" fill="#6699CB"/>
<path d="M78.1772 66.6788L133.479 99.8596V166.221L78.1772 133.04V66.6788Z" fill="#7BA7D3"/>
<path d="M188.78 332.126L244.081 365.306V431.668L188.78 398.487V332.126Z" fill="#7BA7D3"/>
<path d="M188.78 265.764L133.479 298.945V365.306L188.78 332.126V265.764Z" fill="#6699CB"/>
<path d="M22.8757 33.4979L-32.4258 66.6788V133.04L22.8757 99.8596V33.4979Z" fill="#6699CB"/>
<path d="M78.1774 464.849L22.876 498.03V564.392L78.1774 531.211V464.849Z" fill="#6699CB"/>
<path d="M78.177 332.126L22.8756 365.306L-32.4258 332.126V265.764L22.8756 232.583L78.177 265.764V332.126Z" stroke="#2F6799" stroke-miterlimit="10"/>
<path d="M22.8758 365.306L-32.4256 398.487L-87.7271 365.306V298.945L-32.4256 265.764L22.8758 298.945V365.306Z" stroke="#4C6B89" stroke-miterlimit="10"/>
<path d="M22.8758 232.583L-32.4256 265.764L-87.7271 232.583V166.221L-32.4256 133.04L22.8758 166.221V232.583Z" stroke="#2F6799" stroke-miterlimit="10"/>
<path d="M-32.4258 265.764V199.402L22.8756 166.221L78.177 199.402V265.764" stroke="#2F6799" stroke-miterlimit="10"/>
<path d="M133.479 232.583L78.1774 265.764L22.876 232.583V166.221L78.1774 133.04L133.479 166.221V232.583Z" stroke="#2F6799" stroke-miterlimit="10"/>
<path d="M-32.4258 133.04V66.6788L22.8756 33.4979M78.177 133.04V66.6788" stroke="#2F6799" stroke-miterlimit="10"/>
<path d="M-32.4258 133.04L22.8757 99.8596V33.4979L-32.4258 0.317062" stroke="#2F6799" stroke-miterlimit="10"/>
<path d="M188.78 66.6788L133.479 33.4979L78.1772 66.6788M188.78 133.04L133.479 166.221L188.78 133.04Z" stroke="#2F6799" stroke-miterlimit="10"/>
<path d="M133.479 166.221V99.8596L188.78 66.6788L244.081 99.8596V166.221L188.78 199.402" stroke="#2F6799" stroke-miterlimit="10"/>
<path d="M244.081 166.221L188.78 133.04V66.6788L244.081 33.4979L299.383 66.6788V133.04" stroke="#2F6799" stroke-miterlimit="10"/>
<path d="M78.1772 265.764L133.479 298.945V365.306" stroke="#2F6799" stroke-miterlimit="10"/>
<path d="M188.78 332.126L133.479 365.306L78.1772 332.126V265.764L133.479 232.583L188.78 265.764V332.126Z" stroke="#4C6B89" stroke-miterlimit="10"/>
<path d="M244.081 431.668L188.78 464.849L133.479 431.668V365.306L188.78 332.126L244.081 365.306V431.668Z" stroke="#4C6B89" stroke-miterlimit="10"/>
<path d="M78.177 464.849L22.8756 498.03L-32.4258 464.849V398.487L22.8756 365.306L78.177 398.487V464.849Z" stroke="#2F6799" stroke-miterlimit="10"/>
<path d="M-87.7271 498.03V431.668L-32.4256 398.487L22.8758 431.668V498.03L-32.4256 531.211" stroke="#2F6799" stroke-miterlimit="10"/>
<path d="M78.177 531.211L22.8756 564.392L-32.4258 531.211V464.849L22.8756 431.668L78.177 464.849V531.211Z" stroke="#2F6799" stroke-miterlimit="10"/>
<path d="M133.479 564.392L78.1774 597.572L22.876 564.392V498.03L78.1774 464.849L133.479 498.03" stroke="#2F6799" stroke-miterlimit="10"/>
<path d="M244.081 298.945L299.383 332.126V398.487L244.081 431.668L188.78 398.487V332.126" stroke="#4C6B89" stroke-miterlimit="10"/>
</g>
<defs>
<clipPath id="clip0">
<rect x="-254" width="553.751" height="598" fill="white"/>
</clipPath>
</defs>
</svg>

<svg width="300" height="598" fill="none" xmlns="http://www.w3.org/2000/svg"><g clip-path="url(#clip0)"><path d="M22.876 166.221l55.301 33.181v66.362l-55.301-33.181v-66.362z" fill="#7BA7D3"/><path d="M-32.426 265.764l55.302-33.181 55.301 33.181-55.301 33.181-55.302-33.181z" fill="#6699CB"/><path d="M78.177 66.679l55.302 33.18v66.362L78.177 133.04V66.679zM188.78 332.126l55.301 33.18v66.362l-55.301-33.181v-66.361z" fill="#7BA7D3"/><path d="M188.78 265.764l-55.301 33.181v66.361l55.301-33.18v-66.362zM22.876 33.498l-55.302 33.18v66.362l55.302-33.18V33.498zM78.177 464.849L22.876 498.03v66.362l55.301-33.181v-66.362z" fill="#6699CB"/><path d="M78.177 332.126l-55.301 33.18-55.302-33.18v-66.362l55.302-33.181 55.301 33.181v66.362z" stroke="#2F6799" stroke-miterlimit="10"/><path d="M22.876 365.306l-55.302 33.181-55.301-33.181v-66.361l55.301-33.181 55.302 33.181v66.361z" stroke="#4C6B89" stroke-miterlimit="10"/><path d="M22.876 232.583l-55.302 33.181-55.301-33.181v-66.362l55.301-33.181 55.302 33.181v66.362z" stroke="#2F6799" stroke-miterlimit="10"/><path d="M-32.426 265.764v-66.362l55.302-33.181 55.301 33.181v66.362" stroke="#2F6799" stroke-miterlimit="10"/><path d="M133.479 232.583l-55.302 33.181-55.301-33.181v-66.362l55.301-33.181 55.302 33.181v66.362zM-32.426 133.04V66.679l55.302-33.181m55.301 99.542V66.679" stroke="#2F6799" stroke-miterlimit="10"/><path d="M-32.426 133.04l55.302-33.18V33.498L-32.426.318M188.78 66.679l-55.301-33.181-55.302 33.18M188.78 133.04l-55.301 33.181 55.301-33.181z" stroke="#2F6799" stroke-miterlimit="10"/><path d="M133.479 166.221V99.86l55.301-33.181 55.301 33.18v66.362l-55.301 33.181" stroke="#2F6799" stroke-miterlimit="10"/><path d="M244.081 166.221L188.78 133.04V66.679l55.301-33.181 55.302 33.18v66.362M78.177 265.764l55.302 33.181v66.361" stroke="#2F6799" stroke-miterlimit="10"/><path d="M188.78 332.126l-55.301 33.18-55.302-33.18v-66.362l55.302-33.181 55.301 33.181v66.362zM244.081 431.668l-55.301 33.181-55.301-33.181v-66.362l55.301-33.18 55.301 33.18v66.362z" stroke="#4C6B89" stroke-miterlimit="10"/><path d="M78.177 464.849L22.876 498.03l-55.302-33.181v-66.362l55.302-33.181 55.301 33.181v66.362z" stroke="#2F6799" stroke-miterlimit="10"/><path d="M-87.727 498.03v-66.362l55.301-33.181 55.302 33.181v66.362l-55.302 33.181" stroke="#2F6799" stroke-miterlimit="10"/><path d="M78.177 531.211l-55.301 33.181-55.302-33.181v-66.362l55.302-33.181 55.301 33.181v66.362z" stroke="#2F6799" stroke-miterlimit="10"/><path d="M133.479 564.392l-55.302 33.18-55.301-33.18V498.03l55.301-33.181 55.302 33.181" stroke="#2F6799" stroke-miterlimit="10"/><path d="M244.081 298.945l55.302 33.181v66.361l-55.302 33.181-55.301-33.181v-66.361" stroke="#4C6B89" stroke-miterlimit="10"/></g><defs><clipPath id="clip0"><path fill="#fff" d="M-254 0h553.751v598H-254z"/></clipPath></defs></svg>
